X: 5071
T: Bride's
R: polka
M: 2/4
K: Adorian
|:e A2 d|BA G2|A>B cA|d2 d2|
e A2 d|BA G2|A>B cA|d2 d2:|
|:de fg|[af]2[af]2|d>e fe|ed Bd|
de fg|[af]2[af]2|d>e fe|ed Bd:|

